X: 26633
T: Mickey Sweeney's
R: slip jig
M: 9/8
K: Eminor
B2E E2F G2A|B2E E2B AFD|B2E E2F G2B|A2B A2G FED|
B2E E2F G2A|BdB EGB AFD|BGB E2F G2B|A2B A2G FED||
B2d e2f g3|B2e g3 fed|BAB e2f g2g|f/g/af ege edA:|

